X: 464
T: A Waltz For The Ballroom
R: waltz
M: 3/4
K: Gmajor
d3 e d>B|G3 A B2|E3 F G2|D3 G F2|
E3 F G2|F3 G A2|B4 c2|A3 D G>B|
d3 e d>B|G3 A B2|E3 F G2|D3 G F2|
E3 F G2|1 F3 G A>B|G4 A2|G3:|
2 F3 D A2|G3||
g4 f2|f4 e2|d3 e f2|g2 G2 G2|
e2 G2 G2|d2 G2 G2|c3 B c2|A4 d2|
b4 a2|a3 g f2|e3 f g2|d3 c B2|
A3 B c2|d3 e f2|1 g2 d2 B2|G3:|
2 g3 G B>d|g3||

